svg/u1f596_1f3fe.svg

<svg viewBox="0 0 128 128" xmlns="http://www.w3.org/2000/svg" xmlns:xlink="http://www.w3.org/1999/xlink">
  <radialGradient id="c" cx="56.312" cy="33.208" gradientUnits="userSpaceOnUse" r="91.466">
    <stop offset=".3533" stop-color="#A56C43"/>
    <stop offset=".8723" stop-color="#8D5738"/>
  </radialGradient>
  <path d="m53.61 122.25c-23.88 0-30.28-12.73-31.45-23.41-0.22-1.99-0.65-22.31-0.84-32.77 0-0.1-0.01-0.2-0.04-0.3l-6.43-29.03c-0.37-2.05 0.06-4.02 1.18-5.36 0.93-1.12 2.3-1.71 3.96-1.71 3.73 0 5.4 1.88 6.87 7.75l6.78 24.42c0.18 0.66 0.79 1.1 1.44 1.1 0.12 0 0.24-0.01 0.37-0.04 0.79-0.2 1.28-0.99 1.1-1.78l-8.81-39.5c-0.34-2.09 0.04-3.99 1.08-5.28 0.96-1.19 2.47-1.84 4.47-1.93 0.11 0 0.21-0.01 0.32-0.01 3.25 0 5.46 2.46 7.16 7.98l9.03 34.76c0.2 0.96 1.05 1.66 2.04 1.66 1 0 1.84-0.68 2.04-1.66l11.23-44.11c0.01-0.03 0.02-0.07 0.02-0.1 0.93-5.1 3.06-7.28 7.13-7.28 2.16 0 4.19 0.92 5.42 2.45 0.75 0.94 1.55 2.52 1.07 4.74l-11.35 46.39c-0.19 0.79 0.28 1.6 1.07 1.81 0.13 0.03 0.26 0.05 0.39 0.05 0.65 0 1.25-0.43 1.44-1.09l10.15-35.48c1.69-5.35 3.35-7.08 6.84-7.08 4.4 0 6.41 3.67 6.46 7.35-2.91 13.76-9.59 45.41-9.66 46.11-0.09 0.97 0.26 1.57 0.56 1.9 0.4 0.44 0.98 0.69 1.63 0.69 1.44 0 2.87-1.14 3.27-1.49 1.78-1.54 3.31-3.95 4.93-6.5 2.02-3.18 4.12-6.48 6.36-7.39 1.76-0.71 3.89-1.11 6.01-1.11 3.4 0 5.54 1 5.89 1.98 1.56 4.3-0.32 5.95-5.09 9.6l-0.92 0.7c-4.73 3.65-7.81 11.08-10.52 17.64-1.11 2.67-2.15 5.2-3.23 7.31-0.65 1.28-1.21 2.79-1.86 4.53-3.47 9.35-8.74 23.49-37.51 23.49z" fill="url(#c)"/>
  <path d="m72.26 7.14c1.71 0 3.3 0.71 4.26 1.89 0.54 0.68 1.12 1.82 0.78 3.44l-11.36 46.4c-0.39 1.59 0.57 3.19 2.14 3.61 0.26 0.07 0.52 0.1 0.77 0.1 1.31 0 2.51-0.86 2.88-2.18l10.13-35.44c1.64-5.19 2.94-6.03 5.41-6.03 3.53 0 4.87 3.01 4.96 5.71-9.57 45.25-9.62 45.87-9.65 46.11-0.14 1.52 0.44 2.5 0.94 3.05 0.69 0.76 1.67 1.17 2.74 1.17 1.9 0 3.61-1.3 4.25-1.86 1.94-1.68 3.53-4.18 5.21-6.83 1.81-2.85 3.86-6.07 5.66-6.8 1.56-0.63 3.55-1 5.45-1 2.78 0 4.24 0.74 4.5 1.04 1.12 3.12 0.24 4.14-4.61 7.84l-0.92 0.71c-5.05 3.89-8.2 11.52-10.99 18.25-1.09 2.65-2.13 5.14-3.18 7.21-0.69 1.36-1.3 2.98-1.93 4.69-1.68 4.51-3.77 10.13-8.78 14.57-6.02 5.35-14.96 7.94-27.33 7.94-12.56 0-27.96-3.83-29.96-22.08-0.2-1.8-0.61-20.5-0.84-32.64 0-0.2-0.03-0.4-0.07-0.59l-6.41-28.97c-0.28-1.62 0.04-3.17 0.85-4.14 0.65-0.77 1.59-1.17 2.81-1.17 2.34 0 3.87 0.45 5.41 6.61 0.01 0.03 0.01 0.05 0.02 0.08l6.77 24.38c0.37 1.32 1.57 2.2 2.89 2.2 0.24 0 0.49-0.03 0.73-0.09 1.58-0.39 2.55-1.98 2.2-3.56l-8.79-39.41c-0.27-1.71 0-3.16 0.76-4.09 0.68-0.84 1.82-1.31 3.37-1.38 0.09 0 0.17-0.01 0.25-0.01 1.77 0 3.83 0.82 5.7 6.86l9.02 34.72c0.36 1.64 1.81 2.81 3.5 2.81s3.11-1.13 3.49-2.77l11.24-44.13c0.02-0.07 0.03-0.14 0.04-0.2 1.05-5.55 3.49-6.02 5.69-6.02m0-3c-4.95 0-7.59 2.92-8.6 8.51l-11.25 44.17c-0.07 0.31-0.32 0.47-0.58 0.47s-0.53-0.16-0.58-0.49l-9.06-34.86c-1.56-5.08-3.91-9.04-8.59-9.04-0.13 0-0.26 0-0.39 0.01-5.6 0.25-7.71 4.39-6.94 9.03l8.81 39.5-6.77-24.38c-1.46-5.83-3.38-8.89-8.32-8.89-4.95 0-7.43 4.27-6.6 8.89l6.43 29.03s0.57 30.33 0.85 32.91c0.93 8.5 5.74 24.75 32.94 24.75 35.1 0 36.64-20.86 40.71-28.84 3.79-7.43 7.09-19.64 13.33-24.45 4.96-3.83 8.62-6.12 6.5-12-0.71-1.96-3.81-2.97-7.3-2.97-2.2 0-4.56 0.4-6.57 1.22-4.6 1.87-7.84 10.79-11.7 14.14-0.72 0.62-1.66 1.13-2.29 1.13-0.46 0-0.76-0.27-0.7-0.95 0.06-0.69 9.66-46.09 9.66-46.09 0-4.97-3.01-9-7.96-9s-6.76 3.33-8.28 8.16l-10.16 35.49 11.37-46.44c1.1-5.06-3.01-9.01-7.96-9.01z" fill="#875334"/>
  <defs>
    <path id="b" d="m110.64 57.86c-2.27-2.53-8.01-3.72-13.54-1.54-4.65 1.83-9.96 19.19-9.96 19.19l-3.87-6.4s-65.53 21.5-64.6 30 7.74 24.75 34.94 24.75c35.1 0 36.64-20.86 40.71-28.84 3.79-7.43 8.56-24.71 14.42-26.55 3.79-1.19 3.82-8.48 1.9-10.61z"/>
  </defs>
  <clipPath id="a">
    <use xlink:href="#b"/>
  </clipPath>
  <g clip-path="url(#a)">
    <path d="m86.63 69.53c-10.91 4.16-17.34 14.43-21.29 27.9-0.54 1.86 1.17 2.4 1.83 0.58 6.86-18.88 23.87-25.11 23.87-25.11l-4.41-3.37z" fill="#875334"/>
  </g>
</svg>

<svg viewBox="0 0 128 128" xmlns="http://www.w3.org/2000/svg">
  <defs>
    <radialGradient id="c" cx="56.312" cy="33.208" gradientUnits="userSpaceOnUse" r="91.466">
      <stop offset=".3533" stop-color="#A56C43"/>
      <stop offset=".8723" stop-color="#8D5738"/>
    </radialGradient>
  </defs>
  <path d="M53.61,122.25 C29.73,122.25 23.33,109.52 22.16,98.84 C21.94,96.85 21.51,76.53 21.32,66.07 C21.32,65.97 21.31,65.87 21.28,65.77 L14.85,36.74 C14.48,34.69 14.91,32.72 16.03,31.38 C16.96,30.26 18.33,29.67 19.99,29.67 C23.72,29.67 25.39,31.55 26.86,37.42 L33.64,61.84 C33.82,62.5 34.43,62.94 35.08,62.94 C35.2,62.94 35.32,62.93 35.45,62.9 C36.24,62.7 36.73,61.91 36.55,61.12 L27.74,21.62 C27.4,19.53 27.78,17.63 28.82,16.34 C29.78,15.15 31.29,14.5 33.29,14.41 C33.4,14.41 33.5,14.4 33.61,14.4 C36.86,14.4 39.07,16.86 40.77,22.38 L49.8,57.14 C50,58.1 50.85,58.8 51.84,58.8 C52.84,58.8 53.68,58.12 53.88,57.14 L65.11,13.03 C65.12,13 65.13,12.96 65.13,12.93 C66.06,7.83 68.19,5.65 72.26,5.65 C74.42,5.65 76.45,6.57 77.68,8.1 C78.43,9.04 79.23,10.62 78.75,12.84 L67.4,59.23 C67.21,60.02 67.68,60.83 68.47,61.04 C68.6,61.07 68.73,61.09 68.86,61.09 C69.51,61.09 70.11,60.66 70.3,60 L80.45,24.52 C82.14,19.17 83.8,17.44 87.29,17.44 C91.69,17.44 93.7,21.11 93.75,24.79 C90.84,38.55 84.16,70.2 84.09,70.9 C84,71.87 84.35,72.47 84.65,72.8 C85.05,73.24 85.63,73.49 86.28,73.49 C87.72,73.49 89.15,72.35 89.55,72 C91.33,70.46 92.86,68.05 94.48,65.5 C96.5,62.32 98.6,59.02 100.84,58.11 C102.6,57.4 104.73,57 106.85,57 C110.25,57 112.39,58 112.74,58.98 C114.3,63.28 112.42,64.93 107.65,68.58 L106.73,69.28 C102,72.93 98.92,80.36 96.21,86.92 C95.1,89.59 94.06,92.12 92.98,94.23 C92.33,95.51 91.77,97.02 91.12,98.76 C87.65,108.11 82.38,122.25 53.61,122.25 Z" fill="url(#c)"/>
  <path d="M72.26,7.14 C73.97,7.14 75.56,7.85 76.52,9.03 C77.06,9.71 77.64,10.85 77.3,12.47 L65.94,58.87 C65.55,60.46 66.51,62.06 68.08,62.48 C68.34,62.55 68.6,62.58 68.85,62.58 C70.16,62.58 71.36,61.72 71.73,60.4 L81.86,24.96 C83.5,19.77 84.8,18.93 87.27,18.93 C90.8,18.93 92.14,21.94 92.23,24.64 C82.66,69.89 82.61,70.51 82.58,70.75 C82.44,72.27 83.02,73.25 83.52,73.8 C84.21,74.56 85.19,74.97 86.26,74.97 C88.16,74.97 89.87,73.67 90.51,73.11 C92.45,71.43 94.04,68.93 95.72,66.28 C97.53,63.43 99.58,60.21 101.38,59.48 C102.94,58.85 104.93,58.48 106.83,58.48 C109.61,58.48 111.07,59.22 111.33,59.52 C112.45,62.64 111.57,63.66 106.72,67.36 L105.8,68.07 C100.75,71.96 97.6,79.59 94.81,86.32 C93.72,88.97 92.68,91.46 91.63,93.53 C90.94,94.89 90.33,96.51 89.7,98.22 C88.02,102.73 85.93,108.35 80.92,112.79 C74.9,118.14 65.96,120.73 53.59,120.73 C41.03,120.73 25.63,116.9 23.63,98.65 C23.43,96.85 23.02,78.15 22.79,66.01 C22.79,65.81 22.76,65.61 22.72,65.42 L16.31,36.45 C16.03,34.83 16.35,33.28 17.16,32.31 C17.81,31.54 18.75,31.14 19.97,31.14 C22.31,31.14 23.84,31.59 25.38,37.75 C25.39,37.78 25.39,37.8 25.4,37.83 L32.17,62.21 C32.54,63.53 33.74,64.41 35.06,64.41 C35.3,64.41 35.55,64.38 35.79,64.32 C37.37,63.93 38.34,62.34 37.99,60.76 L29.2,21.35 C28.93,19.64 29.2,18.19 29.96,17.26 C30.64,16.42 31.78,15.95 33.33,15.88 C33.42,15.88 33.5,15.87 33.58,15.87 C35.35,15.87 37.41,16.69 39.28,22.73 L48.3,57.45 C48.66,59.09 50.11,60.26 51.8,60.26 C53.49,60.26 54.91,59.13 55.29,57.49 L66.53,13.36 C66.55,13.29 66.56,13.22 66.57,13.16 C67.62,7.61 70.06,7.14 72.26,7.14 M72.26,4.14 C67.31,4.14 64.67,7.06 63.66,12.65 L52.41,56.82 C52.34,57.13 52.09,57.29 51.83,57.29 C51.57,57.29 51.3,57.13 51.25,56.8 L42.19,21.94 C40.63,16.86 38.28,12.9 33.6,12.9 C33.47,12.9 33.34,12.9 33.21,12.91 C27.61,13.16 25.5,17.3 26.27,21.94 L35.08,61.44 L28.31,37.06 C26.85,31.23 24.93,28.17 19.99,28.17 C15.04,28.17 12.56,32.44 13.39,37.06 L19.82,66.09 C19.82,66.09 20.39,96.42 20.67,99 C21.6,107.5 26.41,123.75 53.61,123.75 C88.71,123.75 90.25,102.89 94.32,94.91 C98.11,87.48 101.41,75.27 107.65,70.46 C112.61,66.63 116.27,64.34 114.15,58.46 C113.44,56.5 110.34,55.49 106.85,55.49 C104.65,55.49 102.29,55.89 100.28,56.71 C95.68,58.58 92.44,67.5 88.58,70.85 C87.86,71.47 86.92,71.98 86.29,71.98 C85.83,71.98 85.53,71.71 85.59,71.03 C85.65,70.34 95.25,24.94 95.25,24.94 C95.25,19.97 92.24,15.94 87.29,15.94 C82.34,15.94 80.53,19.27 79.01,24.1 L68.85,59.59 L80.22,13.15 C81.32,8.09 77.21,4.14 72.26,4.14 Z" fill="#875334"/>
  <path d="M84.174,70.605 L86.81,74.964 C81.313,78.093 71.865,85.089 67.17,98.01 C66.51,99.83 64.8,99.29 65.34,97.43 C68.984,85.003 74.739,75.3 84.174,70.605 Z M87.422,74.622 C87.678,73.832 88.099,72.571 88.643,71.068 L91.04,72.9 C91.04,72.9 89.614,73.422 87.422,74.622 Z" fill="#875334"/>
</svg>
